X:120
T:Ymdeithgan Gwyr Llanelli
M:4/4
L:1/8
Q:140
C:Trad. arr. Pibau Pencader
R:Processional
N:Major mode arrangement of Sospan Fach
K:D
A2 | D2 FE D2 DE | FG FE D2 (3DEF | E2 ED EG FE | D2 D
E D2 A2 | D2 FE D2 DE | FG FE D2 A2 | A2 GF ED EF | D
2 D>E DE FG | AF AF A3 F | GE GE G3 E | FE DF FE DF |
ED EF E2 A2 | A4 G2 F2 | E G3 F2 E2 | D2 DC D2 DE |
F4 A2 F2 | E4 E4 | F4 A2 F2 | E4 E2 FE | D2 E2 F2 G2
| A2 AB A2 G2 | FE D2 E2 A2 | D2 DC D2 ||
